X: 26
T:La Cinq-Cents
M:3/4
L:1/8
R:Mazurka
Z:Steve Mansfield
K:C
d/ e>f | g2 g>fe>d | A2 A>Bc>d | e2 f>e d>f | e>d c>d e>f | g2 g>f e>d |
A2 A>B c>d | e2 f>e d>B | c3 :: G/ c>d | e2 e>d c>e | d2 d>c c>B |
A>f f>e d>f | e>d c>B c>d | e2 e>d c>e | d2 d>c c>B | A>f f>e d>B | c3:|
<end>
<start>
